!!!!SEGMENT: pl-sa--l-1643--105_anonim--regina-caeli-laetare.krn
!!!cenid: 16xx:1467
!!!COM: Anonim
!!!COM-rismID: pe30004985
!!!CDT:
!!!CNT:
!!!OTL: Regina caeli laetare
!!!PDT:
!!!AGN: Sacred
!!!YEC: Copyright 2022 Narodowy Instytut Fryderyka Chopina (https://polishscores.org)
!!!YEM: License CC-BY-4.0 (https://creativecommons.org/licenses/by/4.0)
!!!SMS-siglum: PL-SA
!!!SMS-shelfmark: L 1643
!!!SMS-shelfwork: 105 W
!!!SMS-variant:
!!!SMS-altvar:
!!!NIFC-rismSourceID: 1001064670
!!!NIFC-rismChildID: 1001064670
!!!NIFC-islandoraID:
!!!URL-pdf-islandora:
!!!URL-scan:
!!!IIIF:
!!!ONB-nifc: UWAGA: Quia quem meruisti portare. 8 ksiąg. Primi chori: 1mus Cantus (x), C 2dus (41), C 3tius (x), Bassus (x); Secondi chori: Primus Cantus (x), C 2dus (37), Altus (46-47), Bassus (102-103). UWAGA: Nie dodawać pustych linii, chyba że w rękopisie pojawiają się dodatkowe oznaczenia dotyczące pełnej obsady (a 4, a 8 itp.)
!!!AIN: 8 empty
!!!key:
**kern	**text	**kern	**text	**kern	**text	**kern	**kern	**kern	**kern	**text	**kern
*part8	*	*part7	*	*part6	*	*part5	*part4	*part3	*part2	*	*part1
*staff8	*	*staff7	*	*staff6	*	*staff5	*staff4	*staff3	*staff2	*	*staff1
*Iempty	*	*Iempty	*	*Iempty	*	*Iempty	*Iempty	*Iempty	*Iempty	*	*Iempty
*I"Baſsus 2di Chori	*	*I"Altus secundi Chori.	*	*I"Cantus 2dus Secundi Chori.	*	*I"Primus Cantus 2di Chori	*I"Bassus Primi Chori.	*I"Cantus 3tius Primi Chori	*I"Cantus 2dus Primi Chori.	*	*I"1m(us) Cantus Primi Chori
*I'Coro 2 B	*	*I'Coro 2 A	*	*I'Coro 2 S 2	*	*I'Coro 2 S 1	*I'Coro 1 B	*I'Coro 1 S 3	*I'Coro 1 S 2	*	*I'Coro 1 S 1
*clefC3	*	*clefC2	*	*clefC1	*	*clefG2	*clefC3	*clefC2	*clefC1	*	*clefG2
*k[]	*	*k[]	*	*k[]	*	*k[]	*k[]	*k[]	*k[]	*	*k[]
*C:	*	*C:	*	*C:	*	*C:	*C:	*C:	*C:	*	*C:
*M2/2	*	*M2/2	*	*M2/2	*	*M2/2	*M2/2	*M2/2	*M2/2	*	*M2/2
*met(c|)	*	*met(c|)	*	*met(c|)	*	*met(c|)	*met(c|)	*met(c|)	*met(c|)	*	*met(c|)
=1-	=1-	=1-	=1-	=1-	=1-	=1-	=1-	=1-	=1-	=1-	=1-
!LO:TX:a:Bi:t=Regina celi\nzyntonacią	!	!LO:TX:a:Bi:t=Regina V\nCeli let 8\nare	!	!	!	!	!	!	!LO:TX:a:Bi:t=Zinto\nnacią	!	!
0r	.	0r	.	0r	.	1ryy	1ryy	1ryy	2.g/	Qui-	1ryy
.	.	.	.	.	.	.	.	.	4a\	.	.
=2-	=2-	=2-	=2-	=2-	=2-	=2-	=2-	=2-	=2-	=2-	=2-
.	.	.	.	.	.	1ryy	1ryy	1ryy	1.b	-a	1ryy
=3-	=3-	=3-	=3-	=3-	=3-	=3-	=3-	=3-	=3-	=3-	=3-
1g	Qui-	1g	Qui-	2.g/	Qui-	1ryy	1ryy	1ryy	.	.	1ryy
.	.	.	.	.	.	.	.	.	2b\	quem	.
.	.	.	.	4a\	.	.	.	.	.	.	.
=4-	=4-	=4-	=4-	=4-	=4-	=4-	=4-	=4-	=4-	=4-	=4-
2g\	-a	2g\	-a	2b\	-a	1ryy	1ryy	1ryy	1.b	me-	1ryy
2g\	quem	2d/	quem	2b\	quem	.	.	.	.	.	.
=5-	=5-	=5-	=5-	=5-	=5-	=5-	=5-	=5-	=5-	=5-	=5-
2g\	me-	2d/	me-	2b\	me-	1ryy	1ryy	1ryy	.	.	1ryy
2g\	-ru-	2d/	-ru-	2b\	-ru-	.	.	.	2b\	-ru-	.
=6-	=6-	=6-	=6-	=6-	=6-	=6-	=6-	=6-	=6-	=6-	=6-
4c/	-i-	1g	-i-	1a	-i-	1ryy	1ryy	1ryy	1cc	-i-	1ryy
4d\	.	.	.	.	.	.	.	.	.	.	.
4e\	.	.	.	.	.	.	.	.	.	.	.
4f\	.	.	.	.	.	.	.	.	.	.	.
=7-	=7-	=7-	=7-	=7-	=7-	=7-	=7-	=7-	=7-	=7-	=7-
2g\	-ſtÿ,	2g\	-ſti	2b\	-ſti	1ryy	1ryy	1ryy	1b	-ſti,	1ryy
2G/	por-	2g\	Por-	2b\	por-	.	.	.	.	.	.
=8-	=8-	=8-	=8-	=8-	=8-	=8-	=8-	=8-	=8-	=8-	=8-
1c	-ta-	1g	-ta-	1cc	-ta-	1ryy	1ryy	1ryy	1r	.	1ryy
=9-	=9-	=9-	=9-	=9-	=9-	=9-	=9-	=9-	=9-	=9-	=9-
2G/	-re	2g\	-re	2b\	-re	1ryy	1ryy	1ryy	2r	.	1ryy
2r	.	2r	.	2r	.	.	.	.	2cc\	qui-	.
=10-	=10-	=10-	=10-	=10-	=10-	=10-	=10-	=10-	=10-	=10-	=10-
00r	.	00r	.	00r	.	1ryy	1ryy	1ryy	2.cc\	-a	1ryy
.	.	.	.	.	.	.	.	.	4cc\	quem	.
=11-	=11-	=11-	=11-	=11-	=11-	=11-	=11-	=11-	=11-	=11-	=11-
.	.	.	.	.	.	1ryy	1ryy	1ryy	2cc\	me-	1ryy
.	.	.	.	.	.	.	.	.	2dd\	-ru-	.
=12-	=12-	=12-	=12-	=12-	=12-	=12-	=12-	=12-	=12-	=12-	=12-
.	.	.	.	.	.	1ryy	1ryy	1ryy	1ee	-i-	1ryy
=13-	=13-	=13-	=13-	=13-	=13-	=13-	=13-	=13-	=13-	=13-	=13-
.	.	.	.	.	.	1ryy	1ryy	1ryy	2dd\	-ſti	1ryy
.	.	.	.	.	.	.	.	.	2cc\	por-	.
=14-	=14-	=14-	=14-	=14-	=14-	=14-	=14-	=14-	=14-	=14-	=14-
1r	.	1r	.	1r	.	1ryy	1ryy	1ryy	1cc	-ta-	1ryy
=15-	=15-	=15-	=15-	=15-	=15-	=15-	=15-	=15-	=15-	=15-	=15-
2r	.	2r	.	2r	.	1ryy	1ryy	1ryy	2cc\	-re	1ryy
2c/	Por-	2g\	Por-	2cc\	por-	.	.	.	2r	.	.
=16-	=16-	=16-	=16-	=16-	=16-	=16-	=16-	=16-	=16-	=16-	=16-
*	*	*custos:g	*	*	*	*	*	*	*	*	*
4F/	-ta-	1a	-ta-	1cc	-ta-	1ryy	1ryy	1ryy	1r	.	1ryy
4G/	.	.	.	.	.	.	.	.	.	.	.
4A/	.	.	.	.	.	.	.	.	.	.	.
4B/	.	.	.	.	.	.	.	.	.	.	.
!	!	!LO:LB:g=original	!	!	!	!	!	!	!	!	!
=17-	=17-	=17-	=17-	=17-	=17-	=17-	=17-	=17-	=17-	=17-	=17-
2c/	-re	2g\	-re	2cc\	-re	1ryy	1ryy	1ryy	2r	.	1ryy
2r	.	2r	.	2r	.	.	.	.	2cc\	por-	.
=18-	=18-	=18-	=18-	=18-	=18-	=18-	=18-	=18-	=18-	=18-	=18-
1r	.	1r	.	1r	.	1ryy	1ryy	1ryy	1cc	-ta-	1ryy
=19-	=19-	=19-	=19-	=19-	=19-	=19-	=19-	=19-	=19-	=19-	=19-
*	*	*	*	*	*	*	*	*	*custos:cc	*	*
2r	.	2r	.	2r	.	1ryy	1ryy	1ryy	2cc\	-re	1ryy
!	!	!	!	!	!	!	!	!	!LO:LB:g=original	!	!
!	!	!	!	!	!	!	!	!	!LO:TX:t=P:problem=w źrodle ♭ wpisany omyłkowo po kluczu	!	!
2c/	qui-	2a\	qui-	2cc\	qui-	.	.	.	2r	.	.
=20-	=20-	=20-	=20-	=20-	=20-	=20-	=20-	=20-	=20-	=20-	=20-
2.A/	-a	2.a\	-a	2.cc\	-a	1ryy	1ryy	1ryy	00r	.	1ryy
4A/	quem	4a\	quem	4cc\	quem	.	.	.	.	.	.
=21-	=21-	=21-	=21-	=21-	=21-	=21-	=21-	=21-	=21-	=21-	=21-
*custos:d	*	*	*	*	*	*	*	*	*	*	*
!	!LO:MO:P=custos ru	!	!	!	!	!	!	!	!	!	!
2A/	me-	2a\	me-	2cc\	me-	1ryy	1ryy	1ryy	.	.	1ryy
!LO:PB:g=original	!	!	!	!	!	!	!	!	!	!	!
2d\	-ru-	2a\	-ru-	2a\	-ru-	.	.	.	.	.	.
=22-	=22-	=22-	=22-	=22-	=22-	=22-	=22-	=22-	=22-	=22-	=22-
*	*	*	*	*custos:dd	*	*	*	*	*	*	*
1c	-i-	2.e/	-i-	1cc	-i-	1ryy	1ryy	1ryy	.	.	1ryy
.	.	4f\	.	.	.	.	.	.	.	.	.
!	!	!	!	!LO:LB:g=original	!	!	!	!	!	!	!
=23-	=23-	=23-	=23-	=23-	=23-	=23-	=23-	=23-	=23-	=23-	=23-
!LO:TX:t=P:global:problem=oddech/cezura na dole	!	!	!	!	!	!	!	!	!	!	!
2B,</	-ſtÿ	2g\	-ſti	2dd\	-ſti	1ryy	1ryy	1ryy	.	.	1ryy
2c/	por-	2g\	por-	2cc\	por-	.	.	.	.	.	.
=24-	=24-	=24-	=24-	=24-	=24-	=24-	=24-	=24-	=24-	=24-	=24-
4F/	-ta-	1a	-ta-	1cc	-ta-	1ryy	1ryy	1ryy	1r	.	1ryy
4G/	.	.	.	.	.	.	.	.	.	.	.
4A/	.	.	.	.	.	.	.	.	.	.	.
4B/	.	.	.	.	.	.	.	.	.	.	.
=25-	=25-	=25-	=25-	=25-	=25-	=25-	=25-	=25-	=25-	=25-	=25-
2c/	-re,	2g\	-re	2cc\	-re,	1ryy	1ryy	1ryy	2r	.	1ryy
2r	.	2r	.	2r	.	.	.	.	4cc\	me-	.
.	.	.	.	.	.	.	.	.	4cc\	-ru-	.
=26-	=26-	=26-	=26-	=26-	=26-	=26-	=26-	=26-	=26-	=26-	=26-
1r	.	1r	.	1r	.	1ryy	1ryy	1ryy	1cc	-i-	1ryy
=27-	=27-	=27-	=27-	=27-	=27-	=27-	=27-	=27-	=27-	=27-	=27-
2r	.	2r	.	2r	.	1ryy	1ryy	1ryy	2cc\	-ſti	1ryy
2c/	por-	2g\	por-	2cc\	por-	.	.	.	2r	.	.
=28-	=28-	=28-	=28-	=28-	=28-	=28-	=28-	=28-	=28-	=28-	=28-
4F/	-ta-	1a	-ta-	1cc	-ta-	1ryy	1ryy	1ryy	1r	.	1ryy
4G/	.	.	.	.	.	.	.	.	.	.	.
4A/	.	.	.	.	.	.	.	.	.	.	.
4B/	.	.	.	.	.	.	.	.	.	.	.
=29-	=29-	=29-	=29-	=29-	=29-	=29-	=29-	=29-	=29-	=29-	=29-
2c\	-re,	2g\	-re	2cc\	-re,	1ryy	1ryy	1ryy	2r	.	1ryy
2r	.	2r	.	2r	.	.	.	.	1cc\	por-	.
=30-	=30-	=30-	=30-	=30-	=30-	=30-	=30-	=30-	=30-	=30-	=30-
1r	.	1r	.	1r	.	1ryy	1ryy	1ryy	.	.	1ryy
.	.	.	.	.	.	.	.	.	2b\	-ta-	.
=31-	=31-	=31-	=31-	=31-	=31-	=31-	=31-	=31-	=31-	=31-	=31-
*M3/2	*	*M3/2	*	*M3/2	*	*M3/2	*M3/2	*M3/2	*M3/2	*	*M3/2
!	!	!	!	!	!	!	!	!	!LO:TX:t=P:global:problem=oddech jako rozdzielacz słów/cezura	!	!
0.r	.	0.r	.	0.r	.	1.ryy	1.ryy	1.ryy	2cc,<\	-re	1.ryy
.	.	.	.	.	.	.	.	.	2ee\	Al-	.
.	.	.	.	.	.	.	.	.	2dd\	-le-	.
=32-	=32-	=32-	=32-	=32-	=32-	=32-	=32-	=32-	=32-	=32-	=32-
.	.	.	.	.	.	1.ryy	1.ryy	1.ryy	1cc	-lu-	1.ryy
.	.	.	.	.	.	.	.	.	2b\	-ia	.
=33-	=33-	=33-	=33-	=33-	=33-	=33-	=33-	=33-	=33-	=33-	=33-
2f\	Al-	2a\	Al-	2cc\	Al-	1.ryy	1.ryy	1.ryy	1.r	.	1.ryy
2c/	-le-	2g\	-le-	2cc\	-le-	.	.	.	.	.	.
2G/	-lu-	2g\	-lu-	2b\	-lu-	.	.	.	.	.	.
=34-	=34-	=34-	=34-	=34-	=34-	=34-	=34-	=34-	=34-	=34-	=34-
*M2/2	*	*M2/2	*	*M2/2	*	*M2/2	*M2/2	*M2/2	*M2/2	*	*M2/2
*met(c|)	*	*met(c|)	*	*met(c|)	*	*met(c|)	*met(c|)	*met(c|)	*met(c|)	*	*met(c|)
*	*	*custos:g	*	*	*	*	*	*	*	*	*
2c/	-ia,	2g\	-ia	2cc\	-ia	1ryy	1ryy	1ryy	2cc\	Al-	1ryy
!	!	!LO:PB:g=original	!	!	!	!	!	!	!	!	!
2r	.	2r	.	2r	.	.	.	.	4b\	-le-	.
.	.	.	.	.	.	.	.	.	4b\	-lu-	.
=35-	=35-	=35-	=35-	=35-	=35-	=35-	=35-	=35-	=35-	=35-	=35-
4r	.	4r	.	4r	.	1ryy	1ryy	1ryy	4cc,<\	-ia	1ryy
4c/	Al-	4g\	Al-	4cc\	al-	.	.	.	4cc\	Al-	.
4g\	-le-	4g\	-l(e-	4b\	-le-	.	.	.	4dd\	-le-	.
4g\	-lu-	4g\	-lu-	4b\	-lu-	.	.	.	4dd\	-lu-	.
=36-	=36-	=36-	=36-	=36-	=36-	=36-	=36-	=36-	=36-	=36-	=36-
*custos:c	*	*	*	*	*	*	*	*	*	*	*
4c/	-ia	4g\	-i)a	4cc\	-ia	1ryy	1ryy	1ryy	4cc,<\	-ia	1ryy
!LO:LB:g=original	!	!	!	!	!	!	!	!	!	!	!
4c/	Al-	4e/	Al-	4g/	al-	.	.	.	4cc\	Al-	.
4G/	-le-	4g\	-l(e-	4g/	-le-	.	.	.	4b\	-le-	.
*	*	*	*	*	*	*	*	*	*custos:cc	*	*
4G/	-lu-	4g\	-lu-	4b\	-lu-	.	.	.	4b\	-lu-	.
!	!	!	!	!	!	!	!	!	!LO:LB:g=original	!	!
=37-	=37-	=37-	=37-	=37-	=37-	=37-	=37-	=37-	=37-	=37-	=37-
*	*	*	*	*custos:g	*	*	*	*	*	*	*
2c,</	-ia	2e/	-i)a	2g/	-ia	1ryy	1ryy	1ryy	2cc\	-ia	1ryy
!	!	!	!	!LO:LB:g=original	!	!	!	!	!	!	!
2c/	Al-	2g\	Al-	2g/	al-	.	.	.	1cc\	Al-	.
=38-	=38-	=38-	=38-	=38-	=38-	=38-	=38-	=38-	=38-	=38-	=38-
1.g	-le-	1.d	-l(e-	4g/	-le-	1ryy	1ryy	1ryy	.	.	1ryy
.	.	.	.	4a\	.	.	.	.	.	.	.
.	.	.	.	4b\	.	.	.	.	4b\	.	.
.	.	.	.	4cc\	.	.	.	.	4a\	.	.
=39-	=39-	=39-	=39-	=39-	=39-	=39-	=39-	=39-	=39-	=39-	=39-
.	.	.	.	2.dd\	.	1ryy	1ryy	1ryy	2.b\	-le-	1ryy
2g\	-lu-	2g\	-lu-	.	.	.	.	.	.	.	.
.	.	.	.	4dd\	-lu-	.	.	.	4b\	-lu-	.
=40-	=40-	=40-	=40-	=40-	=40-	=40-	=40-	=40-	=40-	=40-	=40-
!	!	!	!	!	!	!	!	!	!LO:TX:a:t=P:problem=kreska pseudotaktowa	!	!
1cl;;	-ia,	1el;;	-i)a	1ccl;;	-ia;	1ryy	1ryy	1ryy	1ccl;;	-ia	1ryy
=41-	=41-	=41-	=41-	=41-	=41-	=41-	=41-	=41-	=41	=41	=41-
*M2/2	*	*M2/2	*	*M2/2	*	*M2/2	*M2/2	*M2/2	*M2/2	*	*M2/2
*met(c|)	*	*met(c|)	*	*met(c|)	*	*met(c|)	*met(c|)	*met(c|)	*met(c|)	*	*met(c|)
1g	O-	1g	O-	1b	O-	1ryy	1ryy	1ryy	1dd	O-	1ryy
=42-	=42-	=42-	=42-	=42-	=42-	=42-	=42-	=42-	=42-	=42-	=42-
2g\	-ra	2g\	-ra	2b\	-ra	1ryy	1ryy	1ryy	2dd\	-ra	1ryy
2g\	pro	2g\	pro	2g/	pro	.	.	.	2b\	pro	.
=43-	=43-	=43-	=43-	=43-	=43-	=43-	=43-	=43-	=43-	=43-	=43-
2d\	no-	2f\	no-	2a\	no-	1ryy	1ryy	1ryy	2a\	no-	1ryy
2g\	-bis	2g\	-bis	2g/	-bis	.	.	.	2b\	-bis	.
=44-	=44-	=44-	=44-	=44-	=44-	=44-	=44-	=44-	=44-	=44-	=44-
4c/	De-	1g	De-	1cc	de-	1ryy	1ryy	1ryy	1cc	de-	1ryy
4d\	.	.	.	.	.	.	.	.	.	.	.
4e\	.	.	.	.	.	.	.	.	.	.	.
4f\	.	.	.	.	.	.	.	.	.	.	.
=45-	=45-	=45-	=45-	=45-	=45-	=45-	=45-	=45-	=45-	=45-	=45-
*	*	*custos:g	*	*	*	*	*	*	*	*	*
1g	-um	1g	-um	1b	-um	1ryy	1ryy	1ryy	1dd	-um	1ryy
!	!	!LO:LB:g=original	!	!	!	!	!	!	!	!	!
=46-	=46-	=46-	=46-	=46-	=46-	=46-	=46-	=46-	=46-	=46-	=46-
00r	.	00r	.	00r	.	1ryy	1ryy	1ryy	00r	.	1ryy
=47-	=47-	=47-	=47-	=47-	=47-	=47-	=47-	=47-	=47-	=47-	=47-
.	.	.	.	.	.	1ryy	1ryy	1ryy	.	.	1ryy
=48-	=48-	=48-	=48-	=48-	=48-	=48-	=48-	=48-	=48-	=48-	=48-
.	.	.	.	.	.	1ryy	1ryy	1ryy	.	.	1ryy
=49-	=49-	=49-	=49-	=49-	=49-	=49-	=49-	=49-	=49-	=49-	=49-
.	.	.	.	.	.	1ryy	1ryy	1ryy	.	.	1ryy
=50-	=50-	=50-	=50-	=50-	=50-	=50-	=50-	=50-	=50-	=50-	=50-
2r	.	2r	.	2r	.	1ryy	1ryy	1ryy	2r	.	1ryy
2g\	O-	2g\	O-	2b\	O-	.	.	.	2b\	O-	.
=51-	=51-	=51-	=51-	=51-	=51-	=51-	=51-	=51-	=51-	=51-	=51-
2g\	-ra	2g\	-ra	2b\	-ra	1ryy	1ryy	1ryy	2b\	-ra	1ryy
2g\	pro	2d/	pro	2dd\	pro	.	.	.	2b\	pro	.
=52-	=52-	=52-	=52-	=52-	=52-	=52-	=52-	=52-	=52-	=52-	=52-
2d\	no-	2d/	no-	2dd\	no-	1ryy	1ryy	1ryy	2a\	no-	1ryy
*custos:c	*	*	*	*custos:cc	*	*	*	*	*	*	*
2g\	-bis	2d/	-bis	2dd\	-bis	.	.	.	2b\	-bis	.
!LO:LB:g=original	!	!	!	!LO:LB:g=original	!	!	!	!	!	!	!
=53-	=53-	=53-	=53-	=53-	=53-	=53-	=53-	=53-	=53-	=53-	=53-
4c/	De-	1g	de-	1cc	de-	1ryy	1ryy	1ryy	1cc	de-	1ryy
4d\	.	.	.	.	.	.	.	.	.	.	.
4e\	.	.	.	.	.	.	.	.	.	.	.
4f\	.	.	.	.	.	.	.	.	.	.	.
=54-	=54-	=54-	=54-	=54-	=54-	=54-	=54-	=54-	=54-	=54-	=54-
2g,<\	-um,	2g\	-um	2dd\	-um	1ryy	1ryy	1ryy	2b\	-um	1ryy
2r	.	2r	.	2r	.	.	.	.	2r	.	.
=55-	=55-	=55-	=55-	=55-	=55-	=55-	=55-	=55-	=55-	=55-	=55-
0r	.	0r	.	0r	.	1ryy	1ryy	1ryy	0r	.	1ryy
=56-	=56-	=56-	=56-	=56-	=56-	=56-	=56-	=56-	=56-	=56-	=56-
.	.	.	.	.	.	1ryy	1ryy	1ryy	.	.	1ryy
=57-	=57-	=57-	=57-	=57-	=57-	=57-	=57-	=57-	=57-	=57-	=57-
1r	.	1r	.	1r	.	1ryy	1ryy	1ryy	1r	.	1ryy
=58-	=58-	=58-	=58-	=58-	=58-	=58-	=58-	=58-	=58-	=58-	=58-
*	*	*	*	*	*	*	*	*	*custos:cc	*	*
2r	.	2r	.	2r	.	1ryy	1ryy	1ryy	2r	.	1ryy
!	!	!	!	!	!	!	!	!	!LO:LB:g=original	!	!
2c/	O-	2e/	O-	2cc\	O-	.	.	.	2cc\	O-	.
=59-	=59-	=59-	=59-	=59-	=59-	=59-	=59-	=59-	=59-	=59-	=59-
2c/	-ra	2g\	-ra	2cc\	-ra	1ryy	1ryy	1ryy	2cc\	-ra	1ryy
2c/	pro	2g\	pro	2cc\	pro	.	.	.	2cc\	pro	.
=60-	=60-	=60-	=60-	=60-	=60-	=60-	=60-	=60-	=60-	=60-	=60-
2g\	no-	2g\	no-	2dd\	no-	1ryy	1ryy	1ryy	2b\	no-	1ryy
2c/	-bis	2g\	-bis	2cc\	-bis	.	.	.	2cc\	-bis	.
=61-	=61-	=61-	=61-	=61-	=61-	=61-	=61-	=61-	=61-	=61-	=61-
1f	de-	1f	De-	2.a\	de-	1ryy	1ryy	1ryy	1cc	de-	1ryy
.	.	.	.	4b\	.	.	.	.	.	.	.
=62-	=62-	=62-	=62-	=62-	=62-	=62-	=62-	=62-	=62-	=62-	=62-
*M3/2	*	*M3/2	*	*M3/2	*	*M3/2	*M3/2	*M3/2	*M3/2	*	*M3/2
1c	-um	1g	-um	1cc	-um	1.ryy	1.ryy	1.ryy	2cc,<\	-um	1.ryy
.	.	.	.	.	.	.	.	.	2ee\	Al-	.
2r	.	2r	.	2r	.	.	.	.	2dd\	-le-	.
=63-	=63-	=63-	=63-	=63-	=63-	=63-	=63-	=63-	=63-	=63-	=63-
0.r	.	0.r	.	0.r	.	1.ryy	1.ryy	1.ryy	1dd	-lu-	1.ryy
.	.	.	.	.	.	.	.	.	2cc,<\	-ia	.
=64-	=64-	=64-	=64-	=64-	=64-	=64-	=64-	=64-	=64-	=64-	=64-
.	.	.	.	.	.	1.ryy	1.ryy	1.ryy	2cc\	Al-	1.ryy
.	.	.	.	.	.	.	.	.	2cc\	-le-	.
.	.	.	.	.	.	.	.	.	2b\	-lu-	.
=65-	=65-	=65-	=65-	=65-	=65-	=65-	=65-	=65-	=65-	=65-	=65-
*M2/2	*	*M2/2	*	*M2/2	*	*M2/2	*M2/2	*M2/2	*M2/2	*	*M2/2
*met(c|)	*	*met(c|)	*	*met(c|)	*	*met(c|)	*met(c|)	*met(c|)	*met(c|)	*	*met(c|)
2r	.	2r	.	1r	.	1ryy	1ryy	1ryy	2cc\	-ia	1ryy
*	*	*custos:g	*	*	*	*	*	*	*	*	*
2g\	Al-	2g\	Al-	.	.	.	.	.	2b\	Al-	.
!	!	!LO:LB:g=original	!	!	!	!	!	!	!	!	!
=66-	=66-	=66-	=66-	=66-	=66-	=66-	=66-	=66-	=66-	=66-	=66-
!	!	!	!	!LO:TX:a:t=P:problem=pominięty fragment	!	!	!	!	!	!	!
1c	-le-	2.g\	-le-	1ryy	.	1ryy	1ryy	1ryy	2.cc\	-le-	1ryy
.	.	4e/	-lu-	.	.	.	.	.	4cc\	-lu-	.
=67-	=67-	=67-	=67-	=67-	=67-	=67-	=67-	=67-	=67-	=67-	=67-
4G/	.	2g\	-ia	1ryy	.	1ryy	1ryy	1ryy	2b,<\	-ia	1ryy
4A/	.	.	.	.	.	.	.	.	.	.	.
4B/	.	2d/	Al-	.	.	.	.	.	2b\	Al-	.
4c\	.	.	.	.	.	.	.	.	.	.	.
=68-	=68-	=68-	=68-	=68-	=68-	=68-	=68-	=68-	=68-	=68-	=68-
1d	-lu-	2.d/	-l(e-	1ryy	.	1ryy	1ryy	1ryy	2.dd\	-le-	1ryy
.	.	4d/	-lu-	.	.	.	.	.	4a\	-lu-	.
=69-	=69-	=69-	=69-	=69-	=69-	=69-	=69-	=69-	=69-	=69-	=69-
1gl;<	-ia	1dl;;	-i)a	1ryy	.	1ryy	1ryy	1ryy	1bl;;	-ia;	1ryy
==	==	==	==	==	==	==	==	==	==	==	==
*-	*-	*-	*-	*-	*-	*-	*-	*-	*-	*-	*-
!!!system-decoration: [(s1,s2,s3,s4)][(s5,s6,s7,s8)]
!!!RDF**kern: > = above
!!!RDF**kern: < = below
!!!RDF**kern: | = vertical stroke
!!!RDF**kern: N = linked
!!!RDF**kern: i = editorial accidental
!!!RDF**kern: l = terminal long
!!!ENC: Andrzej Kubiczek
!!!END: 2021-10-31
!!!EED: Wojciech Jakubiak-Danek
!!!EEV: 2021-11-04
